assets/images/icons/youtube.svg

<svg enable-background="new 0 0 512 512" viewBox="0 0 512 512" xmlns="http://www.w3.org/2000/svg"><path d="m490.24 113.92c-13.888-24.704-28.96-29.248-59.648-30.976-30.656-2.08-107.744-2.944-174.528-2.944-66.912 0-144.032.864-174.656 2.912-30.624 1.76-45.728 6.272-59.744 31.008-14.304 24.672-21.664 67.168-21.664 141.984v.096.096.064c0 74.496 7.36 117.312 21.664 141.728 14.016 24.704 29.088 29.184 59.712 31.264 30.656 1.792 107.776 2.848 174.688 2.848 66.784 0 143.872-1.056 174.56-2.816 30.688-2.08 45.76-6.56 59.648-31.264 14.432-24.416 21.728-67.232 21.728-141.728 0 0 0-.096 0-.16 0 0 0-.064 0-.096 0-74.848-7.296-117.344-21.76-142.016zm-298.24 238.08v-192l160 96z" fill="#fff"/></svg>

<?xml version="1.0" encoding="iso-8859-1"?>
<!-- Generator: Adobe Illustrator 19.0.0, SVG Export Plug-In . SVG Version: 6.00 Build 0)  -->
<svg version="1.1" id="Capa_1" xmlns="http://www.w3.org/2000/svg" xmlns:xlink="http://www.w3.org/1999/xlink" x="0px" y="0px"
	 viewBox="0 0 512 512" style="enable-background:new 0 0 512 512;" xml:space="preserve">
<g>
	<g>
		<path fill="#fff" d="M490.24,113.92c-13.888-24.704-28.96-29.248-59.648-30.976C399.936,80.864,322.848,80,256.064,80
			c-66.912,0-144.032,0.864-174.656,2.912c-30.624,1.76-45.728,6.272-59.744,31.008C7.36,138.592,0,181.088,0,255.904
			C0,255.968,0,256,0,256c0,0.064,0,0.096,0,0.096v0.064c0,74.496,7.36,117.312,21.664,141.728
			c14.016,24.704,29.088,29.184,59.712,31.264C112.032,430.944,189.152,432,256.064,432c66.784,0,143.872-1.056,174.56-2.816
			c30.688-2.08,45.76-6.56,59.648-31.264C504.704,373.504,512,330.688,512,256.192c0,0,0-0.096,0-0.16c0,0,0-0.064,0-0.096
			C512,181.088,504.704,138.592,490.24,113.92z M192,352V160l160,96L192,352z"/>
	</g>
</g>
<g>
</g>
<g>
</g>
<g>
</g>
<g>
</g>
<g>
</g>
<g>
</g>
<g>
</g>
<g>
</g>
<g>
</g>
<g>
</g>
<g>
</g>
<g>
</g>
<g>
</g>
<g>
</g>
<g>
</g>
</svg>
